X:1
T:Recruit, The
M:C
L:1/8
R:Hornpipe
S:Kerr – Merry Melodies, vol. 1, p. 42  (c. 1880)
Z:AK/Fiddler’s Companion
K:D
(F>G)|A3B A>FD>F|A>Fd>B A>FD>F|G>BG>E F>AF>D|E2 (3EEE E2 (A>G)|
F>DF>A c2 (e>f)|e>dc>B A2 (e>d)|c>ec>A B>dB>^G|A2 (3AAA A2:|
(c>d)|e3f e>cA>c|e>ca>f e>cA>c|d>fd>B c>ec>A|B2 (3BBB B2 (3ABc|
d3B A>FD>F|G>AB>c d2 (c>B)|A2 (G>F) E>GF>E|D2 (3ddd d2||

